icons/Media/4k-fill.svg

<svg viewBox="0 0 24 24" xmlns="http://www.w3.org/2000/svg"><path d="M3 3H21C21.5523 3 22 3.44772 22 4V20C22 20.5523 21.5523 21 21 21H3C2.44772 21 2 20.5523 2 20V4C2 3.44772 2.44772 3 3 3ZM11.5 13.5V12H10.5V9H9V12H7.5V9H6V13.5H9V15H10.5V13.5H11.5ZM18 15L15.75 12L18 9H16.25L14.5 11.25V9H13V15H14.5V12.75L16.25 15H18Z"/></svg>

<svg xmlns="http://www.w3.org/2000/svg" viewBox="0 0 24 24">
    <g>
        <path fill="none" d="M0 0h24v24H0z"/>
        <path d="M3 3h18a1 1 0 0 1 1 1v16a1 1 0 0 1-1 1H3a1 1 0 0 1-1-1V4a1 1 0 0 1 1-1zm8.5 10.5V12h-1V9H9v3H7.5V9H6v4.5h3V15h1.5v-1.5h1zM18 15l-2.25-3L18 9h-1.75l-1.75 2.25V9H13v6h1.5v-2.25L16.25 15H18z"/>
    </g>
</svg>
